X:1
T:Title
%%score 1 2
L:1/8
M:6/2
K:F
V:1 treble nm="Part_1"
V:2 bass nm="Part_2"
V:1
 (D4 E4) (F4 G4) (A4 B4) | c12 B4 A8 | (B4 A4) G12 F4 | F8 F8 z8 | (d4 c4) (B4 c4) (d4 B4) | %5
w: Can- * ta- * bo *|Do- ml- no|In * vl- ta|me- a,|Can- * ta- * bo *|
 c12 B4 A8 | (B4 A4) (G4 A4) (B4 G4) | A12 G4 F8 | (G4 F4) E12 D4 | D8 D8 z8 | D8 E8 F8 | %11
w: Do- nm- no|Can- * ta- * bo *|Do mi- no|in * vi- ta|me- a|in vi- ta|
 G8 A8 B8 | c8 A8 c8 | d12 c2 B2 A8 | B8 A12 A4 | G24 | (d4 c4) (B4 c4) (d4 B4) | c12 B4 A8 | %18
w: me- a, Can-|ta- bo, can-|ta- * * *|bo Do- mi-|no,|Al- * le- * lu- *|ja * *|
 (c4 B4) (A4 B4) (c4 A4) | B12 A4 G8 | d12 c4 B8 | A12 G4 F8 | E8 E16 | D16 z8 | D8 E8 F8 | %25
w: Al- * le- * lu- *|ja * *|Al- * *||le- lu-|ja|in vi- ta|
 G8 A8 B8 | c8 A8 c8 | d12 c2 B2 A8 | B8 B8 A8 | B16 z8 | d12 d4 c4 B4 | c16 A8 | B12 B4 A4 G4 | %33
w: me- a can-|ta- bo can|ta- * * *|bo Do- mi-|no,|psal- lam De\-o *|me- o|psal- lam De- o|
 A8 A8 F8 | G4 A4 B4 A4 G8 | F8 E12 D4 | D16 F8 | G4 A4 B4 A4 G8 | F8 E12 D4 | D16 z8 | %40
w: me- o quam|di- * * * *|u fu- e-|ro, quam|di- * * * *|u fu- e-|ro|
 (d4 c4) (B4 c4) (d4 B4) | c12 B4 A8 | (c4 B4) (A4 B4) (c4 A4) | B12 A4 G8 | d12 c4 B8 | %45
w: Al- * le- * lu- *|ja * *|Al- * le- * lu- *|ja * *|Al- * *|
 A12 G4 F8 | E8 E16 | D24 |[M:4/4] z4 z2 D2 | D2 DE F2 FG | A6 GF | G4 G4 | z4 z2 D2 | %53
w: |le- lu-|ja|Ju-|cun- dum sit e- i e-|lo- qui- um|me- um,|ju-|
 G2 GA B2 Bc | d6 GF | A4 A4 | z2 DE FGAB | c4- cd/c/ B/A/G/F/ | E2 FG G3 F | F8 | z2 CD EFGA | %61
w: cun- dum sit e- i e-|lo- qui- um|me- um,|E- go ve- ro de- lec-|ta- * * * * * * *|* bor m Do- ml-|no,|e- go ve- ro de- lec-|
 BGBc d4 | D/E/F/G/ A/B/c/A/ B2 cd | A>Bc>B A3 G | G8 |[M:6/2] (d4 c4) (B4 c4) (d4 B4) | %66
w: ta- bor de- lec- ta-|* * * * * * * * * bor in|Do- * * * * mi-|no|Al- * le- * lu- *|
 c12 B4 A8 | (c4 B4) (A4 B4) (c4 A4) | B12 A4 G8 | d12 c4 B8 | A12 G4 F8 | E8 E16 |[M:4/4] D8 | %73
w: ja * *|Al- * le- * lu- *|ja * *|Al- * *||le- lu-|ja,|
 z2 FG AFAB | c2 cc c3 =B | c3 C EFGG | (G3 F) G2 Bc | d2 dd d3 ^c | d2 A2 BAcB | A4 G4 | %80
w: de- lec- ta- bor de- lec-|ta- bor in Do- mi-|no, in De- o Je- su|me- * o, de- lec-|ta- bor in Do- mi-|no, in De- o Je- su|me- o|
 z2 A2 BAcB | A4 G4 |[M:6/2] (d4 c4) (B4 c4) (d4 B4) | c12 B4 A8 | (c4 B4) (A4 B4) (c4 A4) | %85
w: in De- o Je- su|me- o|Al- * le- * lu- *|ja * *|Al- * le- * lu- *|
 B12 A4 G8 | d12 c4 B8 | A12 G4 F8 | E8 E16 | D16 z8 | (d4 c4) (B4 c4) (d4 B4) | c12 B4 A8 | %92
w: ja * *|Al- * *||le- lu-|ja,|Al- * le- * lu- *|ja * *|
 (c4 B4) (A4 B4) (c4 A4) | B12 A4 G8 | d12 c4 B8 | A12 G4 F8 | E8 E16 |[M:4/4] D8 | %98
w: Al- * le- * lu- *|ja * *|Al- * *||le- lu-|ja,|
 z4 z D/E/ F/G/A/B/ | d3 c B3 A | G4- G z/ A/B/A/G/F/ | E2 F/G/A/D/ E4 | D8- | D8 |] %104
w: Al- * * * * *|||le- lu- * * * *|ja.||
V:2
 D,16 D,8 | A,,16 D,8 | B,,8 C,16 | F,,16 F,,8 | B,,16 B,,8 | F,16 F,8 | G,16 G,8 | D,16 D,8 | %8
w: ||||||||
 B,,8 G,,8 A,,8 | D,16 D,8 | D,16 D,8 | G,,16 G,,8 | F,,16 F,,8 | B,,12 C,4 D,8 | G,,8 D,16 | %15
w: |||||||
 G,,24 | B,,16 B,,8 | F,16 F,8 | F,,16 F,,8 | G,,16 G,,8 | G,,16 G,,8 | D,16 D,8 | G,,8 A,,16 | %23
w: ||||||||
 D,24 | D,16 D,8 | G,,16 G,,8 | F,,16 F,,8 | B,,16 F,8 | D,8 _E,8 F,8 | B,,24 | B,,16 B,,8 | %31
w: ||||||||
 F,16 F,8 | G,16 G,8 | D,16 D,8 | B,,8 G,,8 A,,8 | B,,8 G,,8 A,,8 | D,16 B,,8 | F,,16 A,,8 | %38
w: |||||||
 B,,8 G,,8 A,,8 | D,24 | B,,16 B,,8 | F,,16 F,,8 | F,,16 F,,8 | G,,16 G,,8 | G,,16 G,,8 | %45
w: |||||||
 D,16 D,8 | G,,8 A,,16 | D,24 |[M:4/4] D,8 | D,8 | D,8 | C,6 B,,A,, | G,,8 | G,,8 | G,,8 | D,8 | %56
w: |||||||||||
 D,8 | A,,4 F,,4 | C,8 | F,6 E,D, | C,8 | G,,4 B,,2 A,,G,, | D,4 G,,4 | D,8 | !fermata!G,,8 | %65
w: |||||||||
[M:6/2] B,,16 B,,8 | F,16 F,8 | F,,16 F,,8 | G,,16 G,,8 | F,,16 G,,8 | D,16 D,8 | G,,8 A,,16 | %72
w: |||||||
[M:4/4] D,8 | D,8 | A,,2 F,,2 G,,4 | C,8 | D,4 G,,4 | G,,4 A,,4 | D,4 B,,2 G,,2 | D,4 B,,2 G,,2 | %80
w: ||||||||
 D,4 G,,4 | D,4 G,,4 |[M:6/2] B,,16 B,,8 | F,,16 F,,8 | F,,16 F,,8 | G,,16 G,,8 | G,,16 G,,8 | %87
w: |||||||
 D,16 D,8 | G,,8 A,,16 | D,24 | B,,16 B,,8 | F,,16 F,,8 | F,,16 F,,8 | G,,16 G,,8 | G,,16 G,,8 | %95
w: ||||forte *||||
 D,16 D,8 | G,,8 A,,16 |[M:4/4] !fermata!D,8 | D,8 | ^F,4 G,4 | G,,8 | A,,8 | D,8- | D,8 |] %104
w: |||||||||

